X: 587
T: Nao wugeng
%%abc-version 2.0
%%abcx-abcm2ps-target-version 5.9.1 (29 Sep 2008)
%%abc-creator hum2abc beta
%%abcx-conversion-date 2013/10/02 07:52:30
%%abc-edited-by Helmut Schaffrath
%%humdrum-veritas 1601436955
%%humdrum-veritas-data 4045442112
%%continueall 1
%%barnumbers 0
L: 1/8
M: 2/4
K: G
zd2B [I:setbarnb 1]| 
A2z d- | 
d BA2 | 
G A G A | 
zd2B | 
A2B d | 
B d B A | 
G2G B | 
A G z F- | 
F ED2 |]  



